scalable/apps/menu-editor.svg

<?xml version="1.0" encoding="UTF-8" standalone="no"?>
<!-- Created with Inkscape (http://www.inkscape.org/) -->

<svg
   xmlns:dc="http://purl.org/dc/elements/1.1/"
   xmlns:cc="http://creativecommons.org/ns#"
   xmlns:rdf="http://www.w3.org/1999/02/22-rdf-syntax-ns#"
   xmlns:svg="http://www.w3.org/2000/svg"
   xmlns="http://www.w3.org/2000/svg"
   xmlns:xlink="http://www.w3.org/1999/xlink"
   xmlns:sodipodi="http://sodipodi.sourceforge.net/DTD/sodipodi-0.dtd"
   xmlns:inkscape="http://www.inkscape.org/namespaces/inkscape"
   width="64"
   height="64"
   viewBox="0 0 16.933333 16.933333"
   version="1.1"
   id="svg4572"
   inkscape:version="0.92.2 2405546, 2018-03-11"
   sodipodi:docname="menu-editor.svg">
  <title
     id="title4611">Canvas icon theme</title>
  <defs
     id="defs4566">
    <linearGradient
       inkscape:collect="always"
       id="linearGradient910">
      <stop
         style="stop-color:#000000;stop-opacity:1;"
         offset="0"
         id="stop906" />
      <stop
         style="stop-color:#000000;stop-opacity:0;"
         offset="1"
         id="stop908" />
    </linearGradient>
    <linearGradient
       id="linearGradient3764"
       x1="1"
       x2="47"
       gradientUnits="userSpaceOnUse"
       gradientTransform="rotate(-90,23.999998,24)">
      <stop
         style="stop-color:#8358b4;stop-opacity:1"
         id="stop2" />
      <stop
         offset="1"
         style="stop-color:#8d65ba;stop-opacity:1"
         id="stop4" />
    </linearGradient>
    <linearGradient
       inkscape:collect="always"
       xlink:href="#linearGradient910"
       id="linearGradient912"
       x1="43.152344"
       y1="56"
       x2="43.152344"
       y2="8"
       gradientUnits="userSpaceOnUse" />
  </defs>
  <sodipodi:namedview
     id="base"
     pagecolor="#ffffff"
     bordercolor="#666666"
     borderopacity="1.0"
     inkscape:pageopacity="0.0"
     inkscape:pageshadow="2"
     inkscape:zoom="2.8"
     inkscape:cx="-2.8302047"
     inkscape:cy="26.654196"
     inkscape:document-units="px"
     inkscape:current-layer="layer1"
     showgrid="true"
     units="px"
     width="64px"
     showguides="true"
     inkscape:guide-bbox="true"
     inkscape:window-width="1920"
     inkscape:window-height="1022"
     inkscape:window-x="0"
     inkscape:window-y="28"
     inkscape:window-maximized="1"
     inkscape:snap-bbox="true"
     inkscape:bbox-nodes="true"
     inkscape:snap-bbox-edge-midpoints="false">
    <inkscape:grid
       type="xygrid"
       id="grid4582" />
    <sodipodi:guide
       position="1.0583333,15.875"
       orientation="0,1"
       id="guide4584"
       inkscape:locked="false" />
    <sodipodi:guide
       position="1.0583333,1.0583333"
       orientation="1,0"
       id="guide4586"
       inkscape:locked="false" />
    <sodipodi:guide
       position="15.875,15.875"
       orientation="1,0"
       id="guide4588"
       inkscape:locked="false" />
    <sodipodi:guide
       position="1.0583333,1.0583333"
       orientation="0,1"
       id="guide4590"
       inkscape:locked="false" />
    <sodipodi:guide
       position="8.4666665,8.4666665"
       orientation="0,1"
       id="guide822"
       inkscape:locked="false" />
    <sodipodi:guide
       position="8.4666665,8.4666665"
       orientation="1,0"
       id="guide824"
       inkscape:locked="false" />
  </sodipodi:namedview>
  <metadata
     id="metadata4569">
    <rdf:RDF>
      <cc:Work
         rdf:about="">
        <dc:format>image/svg+xml</dc:format>
        <dc:type
           rdf:resource="http://purl.org/dc/dcmitype/StillImage" />
        <dc:title>Canvas icon theme</dc:title>
        <cc:license
           rdf:resource="http://creativecommons.org/licenses/by-nc-sa/4.0/" />
        <dc:creator>
          <cc:Agent>
            <dc:title>Vince Liuice</dc:title>
          </cc:Agent>
        </dc:creator>
      </cc:Work>
      <cc:License
         rdf:about="http://creativecommons.org/licenses/by-nc-sa/4.0/">
        <cc:permits
           rdf:resource="http://creativecommons.org/ns#Reproduction" />
        <cc:permits
           rdf:resource="http://creativecommons.org/ns#Distribution" />
        <cc:requires
           rdf:resource="http://creativecommons.org/ns#Notice" />
        <cc:requires
           rdf:resource="http://creativecommons.org/ns#Attribution" />
        <cc:prohibits
           rdf:resource="http://creativecommons.org/ns#CommercialUse" />
        <cc:permits
           rdf:resource="http://creativecommons.org/ns#DerivativeWorks" />
        <cc:requires
           rdf:resource="http://creativecommons.org/ns#ShareAlike" />
      </cc:License>
    </rdf:RDF>
  </metadata>
  <g
     inkscape:label="Layer 1"
     inkscape:groupmode="layer"
     id="layer1"
     transform="translate(0,-280.06667)">
    <rect
       style="opacity:1;fill:#6961b8;fill-opacity:1;stroke:none;stroke-width:0.66092891;stroke-miterlimit:4;stroke-dasharray:none;stroke-opacity:0.03921569;paint-order:stroke markers fill"
       id="rect821"
       width="13.758333"
       height="12.7"
       x="1.5874999"
       y="282.18335"
       ry="0.79373699"
       rx="0.79374975" />
    <path
       style="opacity:0.25;fill:url(#linearGradient912);fill-opacity:1;stroke:none;stroke-width:2.49799895;stroke-miterlimit:4;stroke-dasharray:none;stroke-opacity:0.03921569;paint-order:stroke markers fill"
       d="M 48.533203 8 A 42.499977 42.499977 0 0 1 50 19 A 42.499977 42.499977 0 0 1 28.304688 56 L 55 56 C 56.662 56 58 54.661973 58 53 L 58 11 C 58 9.3380272 56.662 8 55 8 L 48.533203 8 z "
       transform="matrix(0.26458333,0,0,0.26458333,0,280.06667)"
       id="rect901" />
    <rect
       style="opacity:1;fill:#ffffff;fill-opacity:1;stroke:#000000;stroke-width:0.52916666;stroke-linecap:round;stroke-linejoin:round;stroke-miterlimit:4;stroke-dasharray:none;stroke-opacity:0.19607843;paint-order:markers stroke fill"
       id="rect933"
       width="6.8791666"
       height="7.9375"
       x="5.0270834"
       y="284.56458"
       ry="0.52916664"
       rx="0.52916688" />
    <path
       style="opacity:0.1;fill:#000000;fill-opacity:1;stroke:none;stroke-width:0.26458332;stroke-linecap:round;stroke-linejoin:round;stroke-miterlimit:4;stroke-dasharray:none;stroke-opacity:0.05882353;paint-order:markers stroke fill"
       d="M 5.0270834,285.88751 H 11.90625 v 0.26459 H 5.0270834 Z"
       id="rect935" />
    <path
       id="path938"
       d="M 5.0270834,287.475 H 11.90625 v 0.26459 H 5.0270834 Z"
       style="opacity:0.1;fill:#000000;fill-opacity:1;stroke:none;stroke-width:0.26458332;stroke-linecap:round;stroke-linejoin:round;stroke-miterlimit:4;stroke-dasharray:none;stroke-opacity:0.05882353;paint-order:markers stroke fill"
       inkscape:connector-curvature="0" />
    <path
       inkscape:connector-curvature="0"
       style="opacity:0.1;fill:#000000;fill-opacity:1;stroke:none;stroke-width:0.26458332;stroke-linecap:round;stroke-linejoin:round;stroke-miterlimit:4;stroke-dasharray:none;stroke-opacity:0.05882353;paint-order:markers stroke fill"
       d="M 5.0270834,289.0625 H 11.90625 v 0.26459 H 5.0270834 Z"
       id="path940" />
    <path
       id="path942"
       d="M 5.0270834,290.65 H 11.90625 v 0.26459 H 5.0270834 Z"
       style="opacity:0.1;fill:#000000;fill-opacity:1;stroke:none;stroke-width:0.26458332;stroke-linecap:round;stroke-linejoin:round;stroke-miterlimit:4;stroke-dasharray:none;stroke-opacity:0.05882353;paint-order:markers stroke fill"
       inkscape:connector-curvature="0" />
    <circle
       style="opacity:1;fill:#6961b8;fill-opacity:1;stroke:none;stroke-width:0.52916664;stroke-linecap:round;stroke-linejoin:round;stroke-miterlimit:4;stroke-dasharray:none;stroke-opacity:0.19607843;paint-order:markers stroke fill"
       id="path963"
       cx="5.8208332"
       cy="285.35834"
       r="0.26458332" />
    <circle
       r="0.26458332"
       cy="286.94583"
       cx="5.8208332"
       id="circle965"
       style="opacity:1;fill:#6961b8;fill-opacity:1;stroke:none;stroke-width:0.52916664;stroke-linecap:round;stroke-linejoin:round;stroke-miterlimit:4;stroke-dasharray:none;stroke-opacity:0.19607843;paint-order:markers stroke fill" />
    <circle
       style="opacity:1;fill:#6961b8;fill-opacity:1;stroke:none;stroke-width:0.52916664;stroke-linecap:round;stroke-linejoin:round;stroke-miterlimit:4;stroke-dasharray:none;stroke-opacity:0.19607843;paint-order:markers stroke fill"
       id="circle967"
       cx="5.8208332"
       cy="288.53333"
       r="0.26458332" />
    <circle
       r="0.26458332"
       cy="290.12085"
       cx="5.8208332"
       id="circle969"
       style="opacity:1;fill:#6961b8;fill-opacity:1;stroke:none;stroke-width:0.52916664;stroke-linecap:round;stroke-linejoin:round;stroke-miterlimit:4;stroke-dasharray:none;stroke-opacity:0.19607843;paint-order:markers stroke fill" />
    <circle
       style="opacity:1;fill:#6961b8;fill-opacity:1;stroke:none;stroke-width:0.52916664;stroke-linecap:round;stroke-linejoin:round;stroke-miterlimit:4;stroke-dasharray:none;stroke-opacity:0.19607843;paint-order:markers stroke fill"
       id="circle971"
       cx="5.8208332"
       cy="291.70834"
       r="0.26458332" />
  </g>
</svg>

<svg xmlns="http://www.w3.org/2000/svg" width="64" height="64" viewBox="0 0 16.933 16.933"><g transform="translate(0 -280.067)"><rect rx=".794" ry=".794" y="282.183" x="1.587" height="12.7" width="13.758" opacity=".9" fill="#6961b8" stroke="#38327a" stroke-width=".529" paint-order="stroke markers fill"/><rect width="13.758" height="12.7" x="1.587" y="282.183" ry=".794" rx=".794" fill="#6961b8" paint-order="stroke markers fill"/><rect width="6.879" height="7.938" x="5.027" y="284.565" ry=".529" rx=".529" fill="#fff" stroke="#000" stroke-width=".529" stroke-linecap="round" stroke-linejoin="round" stroke-opacity=".196" paint-order="markers stroke fill"/><path d="M5.027 285.888h6.88v.264h-6.88zm0 1.587h6.88v.265h-6.88zm0 1.588h6.88v.264h-6.88zm0 1.587h6.88v.265h-6.88z" opacity=".1" paint-order="markers stroke fill"/><circle cx="5.821" cy="285.358" r=".265" fill="#6961b8" paint-order="markers stroke fill"/><circle r=".265" cy="286.946" cx="5.821" fill="#6961b8" paint-order="markers stroke fill"/><circle cx="5.821" cy="288.533" r=".265" fill="#6961b8" paint-order="markers stroke fill"/><circle r=".265" cy="290.121" cx="5.821" fill="#6961b8" paint-order="markers stroke fill"/><circle cx="5.821" cy="291.708" r=".265" fill="#6961b8" paint-order="markers stroke fill"/></g></svg>
